!!!OTL: Leave her Johnny
!!!AGN: Capstan Shanty
!!!AMD: Pentatonic
**kern
*clefG2
*k[f#]
*met(C)
*M4/4
*MM128
!! Solo
{(8g/L
8a/J)
=1
4b/
4b/
8b/L
8a/J
(8g/L
8a/J)
=2
4b/
8b/L
8a/J
2g/}
=3
!! Chorus
{4a/
4a/
4.a/
8g/
=4
4b\
2dd\}
!! Solo
{4dd\
=5
4ee\
4ee\
4dd\
4b\
=6
4dd\
(8b/L
8a/J)
4g/}
!! Chorus
{4dd\
=7
4.b/
8g/
4.b/
8a/
=8
4a/
2g/}
==
*-
